iconen-nieuw/svg/keuzes.svg

<?xml version="1.0" encoding="iso-8859-1"?>
<!-- Generator: Adobe Illustrator 22.1.0, SVG Export Plug-In . SVG Version: 6.00 Build 0)  -->
<svg version="1.1" id="Laag_1" xmlns="http://www.w3.org/2000/svg" xmlns:xlink="http://www.w3.org/1999/xlink" x="0px" y="0px"
	 viewBox="0 0 100 100" style="enable-background:new 0 0 100 100;" xml:space="preserve">
<path d="M9.001,22.506h52.193c1.23-2.951,3.504-4.426,6.824-4.426s5.594,1.475,6.824,4.426h16.783v5.902H74.841
	c-1.23,2.951-3.504,4.426-6.824,4.426s-5.594-1.475-6.824-4.426H9.001V22.506z M9.001,47.588h16.783
	c1.23-2.951,3.504-4.426,6.824-4.426c3.32,0,5.594,1.475,6.824,4.426h52.193v5.902H39.431c-1.23,2.951-3.504,4.426-6.824,4.426
	c-3.32,0-5.594-1.475-6.824-4.426H9.001V47.588z M9.001,72.67h52.193c1.23-2.951,3.504-4.426,6.824-4.426s5.594,1.475,6.824,4.426
	h16.783v5.902H74.841c-1.23,2.951-3.504,4.426-6.824,4.426s-5.594-1.475-6.824-4.426H9.001V72.67z"/>
</svg>

<svg id="33e929d7-dcae-4541-a87d-d78da35aa207" data-name="Laag 1" xmlns="http://www.w3.org/2000/svg" viewBox="0 0 100 100"><defs><style>.\36 e5dddcb-74e0-47f9-9795-bf51b7a2d5c4{fill:#159a3c;}</style></defs><title>Rekam icons groen</title><path class="6e5dddcb-74e0-47f9-9795-bf51b7a2d5c4" d="M9,22.51H61.19A6.79,6.79,0,0,1,68,18.08a6.78,6.78,0,0,1,6.82,4.43H91.62v5.9H74.84A6.77,6.77,0,0,1,68,32.83a6.78,6.78,0,0,1-6.83-4.42H9ZM9,47.59H25.78a6.79,6.79,0,0,1,6.83-4.43,6.78,6.78,0,0,1,6.82,4.43H91.62v5.9H39.43a6.78,6.78,0,0,1-6.82,4.43,6.79,6.79,0,0,1-6.83-4.43H9ZM9,72.67H61.19A6.79,6.79,0,0,1,68,68.24a6.78,6.78,0,0,1,6.82,4.43H91.62v5.9H74.84A6.78,6.78,0,0,1,68,83a6.79,6.79,0,0,1-6.83-4.43H9Z"/></svg>
